X: 2690
T: Banks Of Inverness, The
R: polka
M: 2/4
K: Gmajor
E|:DB, DB,|DE GA|Bd/B/ AB/A/|GE E>G/|DB, DB,|DE GA|Bd/B/ AB/A/|G4:|
GA|Bd dB|ce ed|Bd/B/ AB/A/|GE E2|Bd dB|ce ed|Bd/B/ AB/A/|G3 A|
Bd dB|ce ed|Bd/B/ AB/A/|GE E2|DB, DB,|DE GA|Bd/B/ AB/A/|G4|
GA|:Bd Bd|Bd d2|ed cd|edc2|Bd Bd|Bd d2|ed Bd/B/|AG G2:|
|:GB dB/d/|ed c2|dB/A/ GA/B/|AG ED|GB dB/d/|ed c2|dB/A/ GA/B/|AG G2:|

